svg/face with open eyes and hand over mouth.svg

<?xml version="1.0" encoding="UTF-8" standalone="no"?><!DOCTYPE svg PUBLIC "-//W3C//DTD SVG 1.1//EN" "http://www.w3.org/Graphics/SVG/1.1/DTD/svg11.dtd"><svg width="100%" height="100%" viewBox="0 0 534 534" version="1.1" xmlns="http://www.w3.org/2000/svg" xmlns:xlink="http://www.w3.org/1999/xlink" xml:space="preserve" xmlns:serif="http://www.serif.com/" style="fill-rule:evenodd;clip-rule:evenodd;"><path d="M265.833,39.458c-260.5,0 -266.666,292 -266.666,349.792c-0,57.833 119.375,104.625 266.666,104.625c147.292,0 266.625,-46.792 266.625,-104.625c0,-57.792 -6.166,-349.792 -266.625,-349.792Z" style="fill:#fcc21b;fill-rule:nonzero;"/><path d="M304.392,422.333c2.433,2.167 4.758,-0.541 4.758,-0.541c0,-0 38.921,-43.334 41.467,-45.284c3.587,-2.754 11.304,-7.125 19.333,0.75c3.333,3.267 8.854,10.6 -0.733,22.875c-2.059,2.646 -62.692,69.784 -66.246,73.404c-0,0 -28.067,28.692 -45.188,39.663c-4.758,3.058 -10.108,6.275 -16.391,8.6c-6.25,2.321 -13.355,3.983 -20.884,4.179c-7.512,0.279 -15.35,-0.991 -22.8,-3.5c-7.433,-2.529 -14.421,-6.333 -20.766,-10.754c-1.567,-1.125 -3.134,-2.254 -4.625,-3.467l-4.292,-3.341c-2.925,-2.35 -5.742,-4.834 -8.446,-7.434c-5.271,-5.012 -10.142,-10.429 -14.567,-16.2c-4.295,-5.65 -7.466,-11.791 -10.904,-17.366c-5.933,-9.617 -8.716,-21.934 -9.883,-31.434c-2.613,-21.4 6.137,-43.475 6.137,-43.475l4.013,-7.425c14.033,-20.891 47.662,-56.804 47.662,-56.804c10.855,-12.754 22.446,-11.908 27.167,-8.687c13.6,9.271 9.958,21.816 0.342,33.187l-31.863,34.763c-1.616,3.762 3.196,7.896 6.3,5.25c9.729,-8.342 30.154,-31.138 30.154,-31.138c9.175,-9.229 60.75,-64.821 64.221,-68.212c6.959,-6.809 15.888,-10.459 22.859,-5.592c7.116,4.963 9.283,12.871 2.741,21.725c-1.775,2.396 -53.879,60.262 -53.879,60.262c-3.05,3.355 0.754,7.875 4.108,4.617c0,0 64.834,-71.083 67.767,-74.412c6.617,-7.563 17.513,-9.459 24.15,-3.546c6.483,5.775 6.575,15.541 -0.154,23.362c-2.15,2.479 -47.792,53.159 -66.075,73.888c-1.233,1.383 -2.154,3.221 -0.25,4.916c0.012,0.013 1.946,2.005 4.308,-0.645c4.959,-5.567 54.596,-59.925 57.367,-62.867c6.346,-6.754 14.992,-10.083 22.167,-3.846c6.562,5.692 7.85,15.896 0.654,23.304l-60.084,66.755c0,-0 -1.929,2.437 0.355,4.47Z" style="fill:#fac036;fill-rule:nonzero;stroke:#2f2f2f;stroke-width:12.5px;"/><g><path d="M175.022,276.958c-18.708,0.167 -34.042,-17.791 -34.25,-40.083c-0.208,-22.375 14.792,-40.625 33.5,-40.792c18.667,-0.166 34.042,17.792 34.25,40.167c0.208,22.333 -14.792,40.542 -33.5,40.708Zm183.792,0c18.666,-0.041 33.791,-18.166 33.75,-40.458c-0.042,-22.375 -15.25,-40.417 -33.917,-40.375c-18.708,0.042 -33.875,18.167 -33.833,40.542c0.083,22.291 15.291,40.333 34,40.291Z" style="fill:#2f2f2f;fill-rule:nonzero;"/></g></svg>

<?xml version="1.0" encoding="UTF-8" standalone="no"?>
<!DOCTYPE svg PUBLIC "-//W3C//DTD SVG 1.1//EN" "http://www.w3.org/Graphics/SVG/1.1/DTD/svg11.dtd">
<svg width="100%" height="100%" viewBox="0 0 128 128" version="1.1" xmlns="http://www.w3.org/2000/svg" xmlns:xlink="http://www.w3.org/1999/xlink" xml:space="preserve" xmlns:serif="http://www.serif.com/" style="fill-rule:evenodd;clip-rule:evenodd;">
    <g transform="matrix(0.2397,0,0,0.2397,0,0)">
        <path d="M265.833,39.458C5.333,39.458 -0.833,331.458 -0.833,389.25C-0.833,447.083 118.542,493.875 265.833,493.875C413.125,493.875 532.458,447.083 532.458,389.25C532.458,331.458 526.292,39.458 265.833,39.458Z" style="fill:rgb(252,194,27);fill-rule:nonzero;"/>
    </g>
    <g transform="matrix(0.2397,0,0,0.2397,0,0)">
        <path d="M304.392,422.333C306.825,424.5 309.15,421.792 309.15,421.792C309.15,421.792 348.071,378.458 350.617,376.508C354.204,373.754 361.921,369.383 369.95,377.258C373.283,380.525 378.804,387.858 369.217,400.133C367.158,402.779 306.525,469.917 302.971,473.537C302.971,473.537 274.904,502.229 257.783,513.2C253.025,516.258 247.675,519.475 241.392,521.8C235.142,524.121 228.037,525.783 220.508,525.979C212.996,526.258 205.158,524.988 197.708,522.479C190.275,519.95 183.287,516.146 176.942,511.725C175.375,510.6 173.808,509.471 172.317,508.258L168.025,504.917C165.1,502.567 162.283,500.083 159.579,497.483C154.308,492.471 149.437,487.054 145.012,481.283C140.717,475.633 137.546,469.492 134.108,463.917C128.175,454.3 125.392,441.983 124.225,432.483C121.612,411.083 130.362,389.008 130.362,389.008L134.375,381.583C148.408,360.692 182.037,324.779 182.037,324.779C192.892,312.025 204.483,312.871 209.204,316.092C222.804,325.363 219.162,337.908 209.546,349.279L177.683,384.042C176.067,387.804 180.879,391.938 183.983,389.292C193.712,380.95 214.137,358.154 214.137,358.154C223.312,348.925 274.887,293.333 278.358,289.942C285.317,283.133 294.246,279.483 301.217,284.35C308.333,289.313 310.5,297.221 303.958,306.075C302.183,308.471 250.079,366.337 250.079,366.337C247.029,369.692 250.833,374.212 254.187,370.954C254.187,370.954 319.021,299.871 321.954,296.542C328.571,288.979 339.467,287.083 346.104,292.996C352.587,298.771 352.679,308.537 345.95,316.358C343.8,318.837 298.158,369.517 279.875,390.246C278.642,391.629 277.721,393.467 279.625,395.162C279.637,395.175 281.571,397.167 283.933,394.517C288.892,388.95 338.529,334.592 341.3,331.65C347.646,324.896 356.292,321.567 363.467,327.804C370.029,333.496 371.317,343.7 364.121,351.108L304.037,417.863C304.037,417.863 302.108,420.3 304.392,422.333Z" style="fill:rgb(250,192,54);fill-rule:nonzero;stroke:rgb(47,47,47);stroke-width:12.5px;"/>
    </g>
    <g transform="matrix(0.2397,0,0,0.2397,0,0)">
        <path d="M175.022,276.958C156.314,277.125 140.98,259.167 140.772,236.875C140.564,214.5 155.564,196.25 174.272,196.083C192.939,195.917 208.314,213.875 208.522,236.25C208.73,258.583 193.73,276.792 175.022,276.958ZM358.814,276.958C377.48,276.917 392.605,258.792 392.564,236.5C392.522,214.125 377.314,196.083 358.647,196.125C339.939,196.167 324.772,214.292 324.814,236.667C324.897,258.958 340.105,277 358.814,276.958Z" style="fill:rgb(47,47,47);fill-rule:nonzero;"/>
    </g>
</svg>
